X: 42
T: Ditou chulai ditou jin
L: 1/8
M: 2/4
K: A
b> bb2 [I:setbarnb 1]| 
e' b a f | 
^d e f =d | 
B4 | 
b> bb2 | 
e' b a f | 
^d ef2 | 
e4 |]

@@@ Tune index: 8916
